X:3
T:The Strayaway Child, pt.3
C:Michael Gorman and Margaret Barry
R:jig
M:6/8
L:1/8
K:Em
A|Bee efg|fdf edA|Bee efg|fdf e2f|
gfe dcB|AGA BGE|AGE DB,D|1 ~E3 E2:|2 ~E3 E2|]
z|edB edB|AGA BGE|edB edB|AGA ~B3|
edB gfe|dcB AGA|BAG EAG|~E3 E2:|
<abc>
